src/img/blog/blogFirst.svg

<svg width="290" height="320" viewBox="0 0 290 320" fill="none" xmlns="http://www.w3.org/2000/svg">
<g clip-path="url(#clip0_4147_9438)">
<path fill-rule="evenodd" clip-rule="evenodd" d="M386.001 -150C437.001 -154 504.001 -145 539.001 -106C576.001 -67 538.001 -14 556.001 33C573.001 80 660.001 122 640.001 163C618.001 208 527.001 178 476.001 198C444.001 210 433.001 245 400.001 256C365.001 268 325.001 266 284.001 261C238.001 255 170.001 262 148.001 223C122.001 177 207.001 139 190.001 90C173.001 42 78.0012 33 62.0012 -15C49.0012 -58 78.0012 -107 122.001 -122C168.001 -137 225.001 -80 276.001 -86C323.001 -91 339.001 -146 386.001 -150Z" fill="#1566A5"/>
<path d="M263.001 58C264.001 52 263.001 47 261.001 41C259.001 36 253.001 34 249.001 34C234.001 34 233.001 55 223.001 63L215.001 71C205.001 81 209.001 100 218.001 109C225.001 115 234.001 118 242.001 113C246.001 111 249.001 107 252.001 102L259.001 81C261.001 74 263.001 66 263.001 58Z" fill="#161F26"/>
<path d="M266 87C261 72 255 72 255 72L260 105L269 101L266 87Z" fill="#798A97"/>
<path d="M289 140L272 125C272 125 271 112 268 100L260 105L264 131L286 143L292 152L294 143L289 140Z" fill="#F48C7F"/>
<path d="M218 249C218 249 217 257 215 260L213 263V271L214 272C217 273 220 272 221 269L222 262L225 251L218 249ZM249 253V265C249 266 247 269 248 271L249 273H268L267 272L261 268L259 266L256 264L255 254L249 253Z" fill="#F7A491"/>
<path d="M262.999 133C262.999 133 264.999 148 263.999 157C261.999 167 254.999 256 254.999 256H246.999C246.999 256 244.999 219 245.999 214L247.999 200V170L257.999 131L262.999 133Z" fill="#161F26"/>
<path d="M239 130C239 130 233 141 232 150C230 158 233 186 230 197C228 203 222 213 221 221C221 229 217 250 217 250L225 252L244 199L258 151L262 127L239 130Z" fill="#161F26"/>
<path d="M245.001 69C245.001 69 236.001 69 233.001 73C230.001 77 240.001 109 241.001 114L238.001 133C238.001 133 257.001 137 263.001 133V93L256.001 72L245.001 69Z" fill="#798A97"/>
<path d="M247 57V58L244 69C243 72 248 80 253 79C255 79 252 72 252 71L253 66L254 62L255 57H247Z" fill="#F7A491"/>
<path d="M247 58V57H255L254 62L253 66L250 64L247 59V58Z" fill="#E38B76"/>
<path d="M251.999 38C251.999 38 248.999 37 246.999 41C243.999 44 241.999 54 247.999 59C252.999 65 257.999 58 258.999 52C259.999 45 259.999 38 251.999 38Z" fill="#F7A491"/>
<path d="M261 52L258 54V50L261 48V52Z" fill="#F7A491"/>
<path d="M253 37C253 37 248 46 245 47C241 47 241 52 241 52C241 52 242 41 245 38C249 36 253 37 253 37Z" fill="#161F26"/>
<path d="M222 267C217 268 214 265 213 263C212 265 211 269 212 271C213 273 215 273 216 273C218 273 220 272 220 270L222 267ZM259 266C254 268 251 267 249 266C248 268 247 270 248 271L249 273C255.668 272.701 262.335 272.367 269 272L259 266Z" fill="#1566A5"/>
<path d="M246 49C246 51 245 52 244 52C243 53 242 51 242 50L243 46L246 49Z" fill="#F7A491"/>
<path d="M251 55H255C255 55 255 57 253 57C251 57 251 55 251 55Z" fill="white"/>
<path d="M275 94L270 92L276 90C276 88 270 89 270 89C270 88 277 86 276 85C275 84 269 87 269 87C269 86 275 84 275 82C275 81 265 87 264 86V80L260 90C260 91 246 99 242 100L239 95L232 100L238 112C242 114 259 99 262 96C265 94 267 95 269 94H275Z" fill="#F7A491"/>
<path d="M232 102C232 102 228 84 229 79C229 74 235 69 238 71C242 73 244 98 244 98L232 102Z" fill="#798A97"/>
</g>
<defs>
<clipPath id="clip0_4147_9438">
<rect width="290" height="320" fill="white"/>
</clipPath>
</defs>
</svg>

<svg width="290" height="320" fill="none" xmlns="http://www.w3.org/2000/svg"><path fill-rule="evenodd" clip-rule="evenodd" d="M386-150c51-4 118 5 153 44 37 39-1 92 17 139 17 47 104 89 84 130-22 45-113 15-164 35-32 12-43 47-76 58-35 12-75 10-116 5-46-6-114 1-136-38-26-46 59-84 42-133C173 42 78 33 62-15c-13-43 16-92 60-107 46-15 103 42 154 36 47-5 63-60 110-64Z" fill="#120A59"/><path d="M263 58c1-6 0-11-2-17-2-5-8-7-12-7-15 0-16 21-26 29l-8 8c-10 10-6 29 3 38 7 6 16 9 24 4 4-2 7-6 10-11l7-21c2-7 4-15 4-23Z" fill="#161F26"/><path d="M266 87c-5-15-11-15-11-15l5 33 9-4-3-14Z" fill="#D22538"/><path d="m289 140-17-15s-1-13-4-25l-8 5 4 26 22 12 6 9 2-9-5-3Z" fill="#F48C7F"/><path d="M218 249s-1 8-3 11l-2 3v8l1 1c3 1 6 0 7-3l1-7 3-11-7-2ZM249 253v12c0 1-2 4-1 6l1 2h19l-1-1-6-4-2-2-3-2-1-10-6-1Z" fill="#F7A491"/><path d="M263 133s2 15 1 24c-2 10-9 99-9 99h-8s-2-37-1-42l2-14v-30l10-39 5 2Z" fill="#161F26"/><path d="M239 130s-6 11-7 20c-2 8 1 36-2 47-2 6-8 16-9 24 0 8-4 29-4 29l8 2 19-53 14-48 4-24-23 3Z" fill="#161F26"/><path d="M245 69s-9 0-12 4 7 36 8 41l-3 19s19 4 25 0V93l-7-21-11-3Z" fill="#D22538"/><path d="M247 57v1l-3 11c-1 3 4 11 9 10 2 0-1-7-1-8l1-5 1-4 1-5h-8Z" fill="#F7A491"/><path d="M247 58v-1h8l-1 5-1 4-3-2-3-5v-1Z" fill="#E38B76"/><path d="M252 38s-3-1-5 3c-3 3-5 13 1 18 5 6 10-1 11-7 1-7 1-14-7-14Z" fill="#F7A491"/><path d="m261 52-3 2v-4l3-2v4Z" fill="#F7A491"/><path d="M253 37s-5 9-8 10c-4 0-4 5-4 5s1-11 4-14c4-2 8-1 8-1Z" fill="#161F26"/><path d="M222 267c-5 1-8-2-9-4-1 2-2 6-1 8s3 2 4 2c2 0 4-1 4-3l2-3ZM259 266c-5 2-8 1-10 0-1 2-2 4-1 5l1 2a1970 1970 0 0 0 20-1l-10-6Z" fill="#120A59"/><path d="M246 49c0 2-1 3-2 3-1 1-2-1-2-2l1-4 3 3Z" fill="#F7A491"/><path d="M251 55h4s0 2-2 2-2-2-2-2Z" fill="#fff"/><path d="m275 94-5-2 6-2c0-2-6-1-6-1 0-1 7-3 6-4s-7 2-7 2c0-1 6-3 6-5 0-1-10 5-11 4v-6l-4 10c0 1-14 9-18 10l-3-5-7 5 6 12c4 2 21-13 24-16 3-2 5-1 7-2h6Z" fill="#F7A491"/><path d="M232 102s-4-18-3-23c0-5 6-10 9-8 4 2 6 27 6 27l-12 4Z" fill="#D22538"/></svg>
